assets/images/caydia-logo-black.svg

<?xml version="1.0" encoding="UTF-8"?>
<svg width="383px" height="72px" viewBox="0 0 383 72" version="1.1" xmlns="http://www.w3.org/2000/svg" xmlns:xlink="http://www.w3.org/1999/xlink">
    <!-- Generator: Sketch 50 (54983) - http://www.bohemiancoding.com/sketch -->
    <title>Group 11</title>
    <desc>Created with Sketch.</desc>
    <defs>
        <linearGradient x1="15.72045%" y1="50%" x2="100%" y2="91.5811915%" id="linearGradient-1">
            <stop stop-color="#FF606D" offset="0%"></stop>
            <stop stop-color="#FFB346" offset="54.4934959%"></stop>
            <stop stop-color="#E879BF" offset="100%"></stop>
        </linearGradient>
    </defs>
    <g id="Symbols" stroke="none" stroke-width="1" fill="none" fill-rule="evenodd">
        <g id="big-logo-nav_black-text" transform="translate(-754.000000, -27.000000)">
            <g id="Group-11" transform="translate(754.000000, 27.000000)">
                <polygon id="Fill-1" fill="#000000" points="304 70.8526351 309.444827 70.8526351 343.059967 11.5981548 376.6742 70.8526351 382.119027 70.8526351 343.05906 2"></polygon>
                <polygon id="Fill-2" fill="url(#linearGradient-1)" points="66 70.8526351 71.4448272 70.8526351 105.059967 11.5981548 138.6742 70.8526351 144.119934 70.8526351 105.059967 2"></polygon>
                <path d="M233.500508,5.70675195 C252.341497,5.70675195 264.224501,19.0782483 264.224501,35.4032362 L264.224501,35.5989662 C264.224501,52.0199725 252.341497,65.0997204 233.500508,65.0997204 L216.009386,65.0997204 L216.009386,5.70675195 L233.500508,5.70675195 Z M211,69.8064724 L233.500508,69.8064724 C254.757287,69.8064724 269.430743,54.774041 269.430743,35.4032362 L269.430743,35.2075062 C269.430743,15.8330084 254.757287,1 233.500508,1 L211,1 L211,69.8064724 Z" id="Fill-3" fill="#000000"></path>
                <path d="M33.604254,71.1663111 C45.5825109,71.1663111 53.3124963,66.3598477 60.458265,59.1824664 L57.0772469,55.8384382 C50.2181435,62.7231478 43.5540815,66.5592707 33.7965738,66.5592707 C17.6652981,66.5592707 5.2053346,52.9883513 5.2053346,35.5850021 L5.2053346,35.3855791 C5.2053346,18.0791716 17.4729784,4.60796371 33.7022283,4.60796371 C43.8443755,4.60796371 50.6064118,8.93433477 56.4966588,14.7379132 L60.0736254,11.0015018 C53.1165479,4.51194523 45.8718978,0 33.7965738,0 C14.28428,0 0,16.1144858 0,35.5850021 L0,35.780732 C0,55.5466898 14.28428,71.1663111 33.604254,71.1663111" id="Fill-5" fill="#000000"></path>
                <polygon id="Fill-8" fill="#000000" points="286 70.8064724 291.009386 70.8064724 291.009386 2 286 2"></polygon>
                <polygon id="Fill-9" fill="#000000" points="188.416206 1 166.43097 39.7554584 144.445734 1 139 1 163.926277 44.9376864 163.926277 70.729727 168.935663 70.729727 168.935663 44.9386097 193.861033 1"></polygon>
            </g>
        </g>
    </g>
</svg>

<svg width="383" height="72" viewBox="0 0 383 72" xmlns="http://www.w3.org/2000/svg">
  <defs>
    <linearGradient x1="15.72%" y1="50%" y2="91.581%" id="a">
      <stop stop-color="#FF606D" offset="0%"/>
      <stop stop-color="#FFB346" offset="54.493%"/>
      <stop stop-color="#E879BF" offset="100%"/>
    </linearGradient>
  </defs>
  <g fill="none" fill-rule="evenodd">
    <path fill="#000" d="M304 70.853h5.445l33.615-59.255 33.614 59.255h5.445L343.059 2z"/>
    <path fill="url(#a)" d="M66 70.853h5.445l33.615-59.255 33.614 59.255h5.446L105.06 2z"/>
    <path d="M233.5 5.707c18.841 0 30.725 13.371 30.725 29.696v.196c0 16.421-11.884 29.5-30.724 29.5h-17.492V5.708h17.492zm-22.5 64.1h22.5c21.257 0 35.93-15.033 35.93-34.404v-.195C269.43 15.833 254.758 1 233.5 1H211v68.806zM33.604 71.166c11.979 0 19.708-4.806 26.854-11.984l-3.38-3.344c-6.86 6.885-13.524 10.721-23.281 10.721-16.132 0-28.592-13.57-28.592-30.974v-.2c0-17.306 12.268-30.777 28.497-30.777 10.142 0 16.904 4.326 22.795 10.13l3.577-3.736C53.117 4.512 45.872 0 33.797 0 14.284 0 0 16.114 0 35.585v.196c0 19.766 14.284 35.385 33.604 35.385M286 70.806h5.01V2H286zM188.416 1l-21.985 38.755L144.446 1H139l24.926 43.938V70.73h5.01V44.939L193.86 1z" fill="#000"/>
  </g>
</svg>
